!!!OTL: Die elfjaehrige Markgraefin 'Ach muter, gib mir keinen man!
!!!ARE: Europa, Mitteleuropa, Deutschland
!!!YOR: 2, S. 279
!!    1556 gedruckt in Nuernberg
!!!SCT: Q0053
!!!YEM: Copyright 1995, estate of Helmut Schaffrath.
**kern
*ICvox
*Ivox
!! Mixed meters:  3/2; 4/2
*M4/2
*k[b-]
*F:
{4f
4f
4g
=1
4a
4.cc
8b-
4a
4g
4g
=2
2f
4r}
{4f
4cc
4dd
=3
4ee
4cc
2ff
2dd
=4
2cc}
{2f
4cc
4ff
=5
4.ee
8dd
4cc
4dd
4.cc
8b-
=6
2a
4r}
{4dd
4.cc
8b-
=7
4a
4f
4g
4.cc
8b-
4a
4g
4g
=8
2f
4r}
==
!!!AGN: Ballade, Braut - Werbung, Hochzeit, Minderjaehrige, Tod
!!!ONB: ESAC (Essen Associative Code) Database: BALLADE
!!!AMT: irregular
!!!AIN: vox
!!!EED: Helmut Schaffrath
!!!EEV: 1.0
*-
